packages/ui/assets/svg/partner_gate.svg

<svg class="partner-size" width="100" height="31" viewBox="0 0 100 31" fill="none" xmlns="http://www.w3.org/2000/svg">
<g id="partner_gate" clip-path="url(#clip0_205_75)">
<path id="path24611" d="M11.9422 15.0867L11.6801 14.817C11.4789 14.6148 11.1375 14.7558 11.1375 15.0438V18.8614C11.1375 19.0391 11.2838 19.18 11.4545 19.18H15.2524C15.5328 19.18 15.6791 18.8369 15.4779 18.6347C15.356 18.5121 15.356 18.3099 15.4779 18.1812L19.5135 14.1123C19.6355 13.9898 19.6355 13.7876 19.5135 13.6589L19.1478 13.2912C18.9466 13.089 19.0929 12.7458 19.3733 12.7458H23.1651C23.3419 12.7458 23.4821 12.8868 23.4821 13.0645V16.8821C23.4821 17.164 23.1407 17.3111 22.9395 17.1088L22.6835 16.8515C22.5555 16.7228 22.3604 16.7228 22.2324 16.8515L15.4231 23.6901C15.3011 23.8127 15.1 23.8127 14.972 23.6901L6.64472 15.3134C6.5228 15.1908 6.5167 14.9886 6.64472 14.8599L18.1724 3.27225C18.2943 3.14969 18.2943 2.94135 18.1724 2.81879L15.4596 0.0919171C15.3377 -0.030639 15.1366 -0.030639 15.0085 0.0919171L0.0914411 15.0989C-0.0304804 15.2215 -0.0304804 15.4298 0.0914411 15.5524L15.0146 30.5532C15.1366 30.6758 15.3438 30.6758 15.4657 30.5532L30.3889 15.5524C30.5109 15.4298 30.5109 15.2276 30.3889 15.0989L21.6106 6.27487C21.4887 6.15232 21.2875 6.15232 21.1595 6.27487L12.3933 15.0867C12.2714 15.2092 12.0702 15.2092 11.9422 15.0867ZM80.8278 18.8798C80.4438 18.8798 80.1085 19.0207 79.8342 19.2965C79.5599 19.5783 79.4196 19.9031 79.4196 20.283C79.4196 20.8652 79.7123 21.3186 80.2975 21.6373C80.9376 21.815 81.4496 21.6986 81.8337 21.3003C82.1141 21.0184 82.2482 20.6813 82.2482 20.2892C82.2482 19.8909 82.108 19.56 81.8337 19.2903C81.5533 19.0207 81.2241 18.8798 80.8278 18.8798ZM58.1504 8.09483H57.0958C56.6386 8.09483 56.2729 8.4625 56.2729 8.92209V9.51036C55.1512 8.33994 53.8893 7.7578 52.4689 7.7578C50.8352 7.7578 49.4696 8.37058 48.3845 9.59002C47.2933 10.8095 46.7508 12.3353 46.7508 14.1614C46.7508 16.0242 47.2933 17.5745 48.3784 18.8246C49.4757 20.0441 50.8656 20.6568 52.5421 20.6568C53.871 20.6568 55.1146 20.1115 56.2668 19.0268V20.1911C56.2668 20.7549 56.724 21.2206 57.2848 21.2206H59.0831V9.04464C59.0892 8.52378 58.6686 8.09483 58.1504 8.09483ZM55.4926 17.0537C54.8525 17.7706 54.0112 18.1322 52.9749 18.1322C51.9995 18.1322 51.1948 17.7584 50.5547 17.0169C49.9329 16.2816 49.6159 15.3256 49.6159 14.1614C49.6159 13.0706 49.939 12.1453 50.5791 11.4038C51.2253 10.6685 52.0361 10.3008 52.9993 10.3008C54.0234 10.3008 54.8525 10.6624 55.4926 11.3916C56.1326 12.1331 56.4557 13.0767 56.4557 14.2226C56.4496 15.3685 56.1266 16.3122 55.4926 17.0537ZM46.7508 10.1538V8.9466C46.7508 8.47476 46.3728 8.09483 45.9034 8.09483H44.7939C44.3246 8.09483 43.9466 8.47476 43.9466 8.9466V9.47359C42.9347 8.32769 41.6606 7.75167 40.1305 7.75167C38.387 7.75167 36.9788 8.41348 35.9181 9.73096C34.9305 10.9749 34.4367 12.4885 34.4367 14.2655C34.4367 16.0977 34.9671 17.6236 36.0339 18.8369C37.0885 20.0441 38.4418 20.6385 40.1 20.6385C41.5508 20.6385 42.8371 20.0686 43.9527 18.9227V20.6262C43.9527 23.157 42.9286 24.4254 40.8742 24.4254C39.7586 24.4254 38.9112 24.0455 38.3321 23.2857C38.1858 23.0957 38.0578 22.8506 37.9603 22.5626C37.82 22.1581 37.4421 21.8947 37.0215 21.8947H35.9607C35.4243 21.8947 35.028 22.4094 35.1622 22.9303C35.4548 24.0394 36.0156 24.9402 36.8508 25.6387C37.8993 26.515 39.2343 26.9562 40.8498 26.9562C42.7701 26.9562 44.2758 26.3189 45.3731 25.0505C45.9522 24.3887 46.3424 23.5982 46.5435 22.679C46.6106 22.3481 46.6654 21.9559 46.702 21.5209C46.7386 21.0858 46.7569 20.5772 46.7569 20.0012V18.2302C45.9705 17.0905 45.5743 15.7362 45.5743 14.1491C45.5682 12.6049 45.9644 11.2752 46.7508 10.1538ZM43.1968 16.9556C42.575 17.74 41.7276 18.1322 40.6547 18.1322C39.5818 18.1322 38.7406 17.7461 38.137 16.9679C37.5823 16.2571 37.3019 15.3502 37.3019 14.2349C37.3019 13.1074 37.5823 12.1882 38.137 11.4774C38.7527 10.6869 39.594 10.2886 40.6547 10.2886C41.6545 10.2886 42.4713 10.6501 43.1114 11.3793C43.7454 12.0902 44.0624 13.04 44.0624 14.2226C44.0563 15.3318 43.7698 16.2448 43.1968 16.9556ZM70.0683 8.10709V8.09483H64.2526V4.51619C64.2526 4.05661 63.8808 3.68281 63.4235 3.68281H62.2897C61.8264 3.68281 61.4484 4.06274 61.4484 4.52845V8.09483H60.2536V10.7237H61.4484V21.2083H63.0456C63.7101 21.2083 64.2465 20.6691 64.2526 20.0012V19.995V10.7298H67.13C67.3555 10.2947 67.6359 9.89028 67.959 9.52261C68.5503 8.86694 69.2575 8.39509 70.0683 8.10709ZM84.3819 3.68281C83.882 3.68281 83.4553 3.86052 83.1017 4.22206C82.7481 4.5836 82.5652 5.00642 82.5652 5.50277C82.5652 6.02363 82.742 6.45871 83.1017 6.82025C83.4613 7.18179 83.8942 7.3595 84.4001 7.3595C84.9061 7.3595 85.3328 7.18179 85.6803 6.82025C86.04 6.45871 86.2168 6.02976 86.2168 5.51503C86.2168 5.00642 86.04 4.57747 85.6803 4.22819C85.3206 3.86052 84.8878 3.68281 84.3819 3.68281ZM84.9488 9.47972H83.9307C83.4065 9.47972 82.9858 9.90254 82.9858 10.4295V19.3823C83.1992 19.6335 83.3028 19.9338 83.3028 20.2769C83.3028 20.6201 83.1992 20.9265 82.9858 21.1777V21.6802H84.7903C85.345 21.6802 85.79 21.2267 85.79 20.6752V10.3192C85.79 9.85351 85.4121 9.47972 84.9488 9.47972ZM98.1346 11.2078C96.8727 9.96381 95.3304 9.33878 93.5199 9.33878C91.7154 9.33878 90.1853 9.95769 88.9295 11.1955C87.6737 12.4333 87.0458 13.9285 87.0458 15.6933C87.0458 17.5623 87.6615 19.1188 88.8929 20.3566C90.1244 21.6066 91.6484 22.2378 93.465 22.2378C95.2999 22.2378 96.8544 21.625 98.1163 20.3933C99.366 19.1555 100 17.6236 100 15.7914C100 13.9775 99.3782 12.4517 98.1346 11.2078ZM96.1473 18.653C95.495 19.3639 94.6172 19.7132 93.5199 19.7132C92.4287 19.7132 91.5508 19.3577 90.8864 18.6347C90.2402 17.9238 89.911 16.9556 89.911 15.7423C89.911 14.6087 90.2463 13.6773 90.9107 12.9603C91.5752 12.2434 92.4409 11.8818 93.5138 11.8818C94.5989 11.8818 95.4767 12.2434 96.1412 12.9603C96.7996 13.6711 97.1287 14.6209 97.1287 15.8036C97.1348 16.9924 96.8056 17.9361 96.1473 18.653Z" fill="#DE5959"></path>
<path id="path24613" d="M71.1107 18.1567C70.5316 17.5684 70.2085 16.7657 70.1353 15.7669H78.1761C78.5418 15.7669 78.8466 15.4727 78.8527 15.1051C78.8527 13.089 78.3346 11.5142 77.3104 10.3805C76.268 9.23462 74.8537 8.66473 73.0676 8.66473C71.2997 8.66473 69.8793 9.253 68.8064 10.4295C67.7396 11.6245 67.2092 13.1871 67.2092 15.1173C67.2092 17.066 67.7579 18.6285 68.8552 19.8051C69.6233 20.6262 70.5621 21.1532 71.6715 21.3983C72.1409 21.5086 72.6225 21.5638 73.1102 21.5576C75.1097 21.6005 76.8471 21.6434 78.8405 21.6802V21.3861C78.5967 21.1164 78.4748 20.7978 78.4748 20.424C78.4748 20.0563 78.6028 19.7438 78.8527 19.4742V19.1188C77.2738 19.082 73.4577 19.0391 73.3053 19.0391C72.4214 19.0391 71.6837 18.745 71.1107 18.1567ZM70.7206 12.5191C70.8973 12.2434 71.1046 12.0105 71.3485 11.8144C71.5923 11.6183 71.8666 11.4651 72.1653 11.361C72.464 11.2568 72.7871 11.2016 73.1285 11.2016C74.622 11.2016 75.5669 11.9554 75.9571 13.4567H70.3182C70.4158 13.1074 70.5499 12.7949 70.7206 12.5191Z" fill="#DE5959"></path>
</g>
<defs>
<clipPath id="clip0_205_75">
<rect width="100" height="30.6452" fill="white"></rect>
</clipPath>
</defs>
</svg>

<svg class="partner-size" width="100" height="31" viewBox="0 0 100 31" fill="none" xmlns="http://www.w3.org/2000/svg"><g clip-path="url(#clip0_205_75)" fill="#DE5959"><path d="m11.942 15.087-.262-.27a.317.317 0 0 0-.543.227v3.817a.32.32 0 0 0 .317.319h3.798a.32.32 0 0 0 .226-.545.327.327 0 0 1 0-.454l4.036-4.069a.327.327 0 0 0 0-.453l-.366-.368a.32.32 0 0 1 .225-.545h3.792c.177 0 .317.14.317.319v3.817c0 .282-.341.43-.543.227l-.256-.258a.312.312 0 0 0-.45 0l-6.81 6.84a.323.323 0 0 1-.451 0l-8.327-8.378a.321.321 0 0 1 0-.453L18.172 3.272a.327.327 0 0 0 0-.453L15.46.092a.323.323 0 0 0-.452 0L.091 15.099a.327.327 0 0 0 0 .453l14.924 15.001c.122.123.329.123.45 0l14.924-15a.327.327 0 0 0 0-.454L21.61 6.275a.323.323 0 0 0-.451 0l-8.767 8.812a.323.323 0 0 1-.45 0Zm68.886 3.793c-.384 0-.72.14-.994.417a1.367 1.367 0 0 0-.414.986c0 .582.292 1.036.877 1.354.64.178 1.153.062 1.537-.337.28-.282.414-.619.414-1.01 0-.4-.14-.73-.414-1-.28-.27-.61-.41-1.006-.41ZM58.15 8.095h-1.054a.822.822 0 0 0-.823.827v.588c-1.122-1.17-2.384-1.752-3.804-1.752-1.634 0-3 .613-4.084 1.832-1.092 1.22-1.634 2.745-1.634 4.571 0 1.863.542 3.414 1.627 4.664 1.098 1.22 2.488 1.832 4.164 1.832 1.329 0 2.573-.546 3.725-1.63v1.164c0 .564.457 1.03 1.018 1.03h1.798V9.045a.938.938 0 0 0-.933-.95Zm-2.657 8.959c-.64.717-1.482 1.078-2.518 1.078-.976 0-1.78-.374-2.42-1.115-.622-.735-.94-1.691-.94-2.856 0-1.09.324-2.016.964-2.757.646-.736 1.457-1.103 2.42-1.103 1.024 0 1.853.361 2.494 1.09.64.742.963 1.686.963 2.832-.006 1.145-.33 2.09-.963 2.83Zm-8.742-6.9V8.947a.848.848 0 0 0-.848-.852h-1.11c-.468 0-.846.38-.846.852v.527c-1.012-1.146-2.286-1.722-3.817-1.722-1.743 0-3.151.661-4.212 1.979-.987 1.244-1.481 2.758-1.481 4.534 0 1.833.53 3.359 1.597 4.572 1.055 1.207 2.408 1.802 4.066 1.802 1.45 0 2.737-.57 3.853-1.716v1.703c0 2.531-1.024 3.8-3.079 3.8-1.115 0-1.963-.38-2.542-1.14a2.506 2.506 0 0 1-.372-.723.991.991 0 0 0-.938-.668H35.96a.83.83 0 0 0-.799 1.035c.293 1.11.854 2.01 1.689 2.709 1.048.876 2.383 1.317 3.999 1.317 1.92 0 3.426-.637 4.523-1.905.58-.662.97-1.453 1.17-2.372.068-.33.122-.723.159-1.158.037-.435.055-.944.055-1.52v-1.77c-.786-1.14-1.183-2.495-1.183-4.082-.006-1.544.39-2.874 1.177-3.995Zm-3.554 6.802c-.622.784-1.47 1.176-2.542 1.176-1.073 0-1.914-.386-2.518-1.164-.555-.71-.835-1.618-.835-2.733 0-1.128.28-2.047.835-2.758.616-.79 1.457-1.188 2.518-1.188 1 0 1.816.361 2.456 1.09.634.711.951 1.661.951 2.844-.006 1.109-.292 2.022-.865 2.733Zm26.871-8.849v-.012h-5.815V4.516a.832.832 0 0 0-.83-.833H62.29a.845.845 0 0 0-.842.845v3.567h-1.194v2.629h1.194v10.484h1.598c.664 0 1.2-.539 1.207-1.207V10.73h2.877c.226-.435.506-.84.829-1.207a5.11 5.11 0 0 1 2.11-1.416Zm14.314-4.424c-.5 0-.927.178-1.28.54-.354.36-.537.783-.537 1.28 0 .52.177.956.537 1.317.36.362.792.54 1.298.54s.933-.178 1.28-.54c.36-.361.537-.79.537-1.305 0-.509-.177-.938-.537-1.287a1.745 1.745 0 0 0-1.298-.545Zm.567 5.797H83.93a.944.944 0 0 0-.945.95v8.952c.213.252.317.552.317.895 0 .343-.104.65-.317.9v.503h1.804c.555 0 1-.453 1-1.005V10.32a.84.84 0 0 0-.841-.84Zm13.186 1.728c-1.262-1.244-2.805-1.87-4.615-1.87-1.805 0-3.335.62-4.59 1.857-1.256 1.238-1.884 2.733-1.884 4.498 0 1.87.615 3.426 1.847 4.664 1.231 1.25 2.755 1.88 4.572 1.88 1.835 0 3.39-.612 4.651-1.844 1.25-1.238 1.884-2.77 1.884-4.602 0-1.814-.622-3.34-1.865-4.583Zm-1.988 7.445c-.652.71-1.53 1.06-2.627 1.06-1.091 0-1.97-.355-2.634-1.078-.646-.711-.975-1.68-.975-2.893 0-1.133.335-2.065 1-2.782.664-.717 1.53-1.078 2.603-1.078 1.085 0 1.963.361 2.627 1.078.659.711.988 1.66.988 2.844.006 1.188-.323 2.132-.982 2.849Z"/><path d="M71.11 18.157c-.578-.589-.901-1.391-.975-2.39h8.041c.366 0 .67-.294.677-.662 0-2.016-.518-3.59-1.543-4.725-1.042-1.145-2.456-1.715-4.242-1.715-1.768 0-3.189.588-4.262 1.765-1.066 1.194-1.597 2.757-1.597 4.687 0 1.949.549 3.511 1.646 4.688a5.34 5.34 0 0 0 2.816 1.593c.47.11.951.166 1.44.16 1.999.043 3.736.085 5.73.122v-.294a1.383 1.383 0 0 1-.366-.962c0-.368.128-.68.378-.95v-.355c-1.58-.037-5.395-.08-5.548-.08-.884 0-1.621-.294-2.194-.882Zm-.39-5.638c.177-.276.385-.508.629-.705.243-.196.518-.349.816-.453.299-.104.622-.16.963-.16 1.494 0 2.439.754 2.83 2.256h-5.64c.098-.35.232-.662.403-.938Z"/></g><defs><clipPath id="clip0_205_75"><path fill="#fff" d="M0 0h100v30.645H0z"/></clipPath></defs></svg>
